X:1
T:Awake and sing the song
T:Awake and sing the song - Haddington (Thomas Clark)
C:Thomas Clark
Z:p64, A Fifth Set of
Z:Psalm & Hymn Tunes,
Z:London: [c1809]
%%score [ 1 2 3 4 ]
L:1/8
M:2/2
K:G
V:1 treble nm="Air" snm="S."
V:2 treble nm="[Alto]" snm="A."
V:3 treble-8 transpose=-12 nm="Tenor" snm="T."
V:4 bass nm="[Bass]" snm="B."
V:1
 G2 | d2 d2 d2 c2 | B6 B2 | c2 c2 c2 d2 | e6 d2 | c4 B4 | A6 A2 | G8 | B4 G2 G2 | A4 d4 | c4 B4 | %11
w: Sing,|till we feel our|hearts, sing,|till we feel our|hearts As-|cen- ding|with our|tongues;|Sing, till the|love of|sin de-|
w: A-|wake and sing the|song, a-|wake and sing the|song Of|Mo- ses|and the|Lamb:|Wake ev- ’ry|heart and|ev- ’ry|
w: Sing|of his dy- ing|love, sing|of his dy- ing|love, Sing|of his|ri- sing|pow’r;|Sing how he|in- ter-|cedes a-|
 A4 z4 | z2 G2 B2 G2 | c6 d2 | e4 e4 | d4 z2 c2 | B2 A2 G2 F2 | G2 A2 B2 c2 | B4 A4 | G8 |] %20
w: parts,|sing, till the|love of|sin de-|parts, And|grace in- spires our|songs, and grace in-|spires our|songs.|
w: tongue,|wake ev- ’ry|heart and|ev- ’ry|tongue To|bless the Sa- viour’s|name, to bless the|Sa- viour’s|name.|
w: bove,|sing how he|in- ter-|cedes a-|bove For|those whose sins he|bore, for those whose|sins he|bore.|
V:2
 z2 | z8 | z4 z2 D2 | G2 G2 G2 =F2 | E6 G2 | (G2 D2) D4 | E4 (D2 C2) | B,8 | D4 D2 D2 | D4 D4 | %10
w: ||Sing,|till we feel our|hearts As-|cen- * ding|with our _|tongues;|Sing, till the|love of|
w: ||A-|wake and sing the|song Of|Mo- * ses|and the _|Lamb:|Wake ev- ’ry|heart and|
w: ||Sing|of his dy- ing|love, Sing|of _ his|ri- sing _|pow’r;|Sing how he|in- ter-|
 (E2 F2) G4 | F2 F2 A2 F2 | G8- | G6 G2 | G4 G4 | G4 z4 | z4 z2 D2 | D6 E2 | D4 C4 | B,8 |] %20
w: sin _ de-|parts, sing, till the|love|_ of|sin de-|parts,|And|grace in-|spires our|songs.|
w: ev- * ’ry|tongue, wake ev- ’ry|heart|_ and|ev- ’ry|tongue|To|bless the|Sa- viour’s|name.|
w: cedes _ a-|bove, sing how he|in-|* ter-|cedes a-|bove|For|those whose|sins he|bore.|
V:3
 z2 | z8 | z8 | z4 z2 D2 | G2 G2 G2 =F2 | E2 A2 B2 G2 | G4 F4 | G8 | G4 B2 B2 | (A2 F2) G4 | %10
w: |||Sing,|till we feel our|hearts, As- cen- ding|with our|tongues;|Sing, till the|love _ of|
w: |||A-|wake and sing the|song Of Mo- ses|and the|Lamb:|Wake ev- ’ry|heart _ and|
w: |||Sing|of his dy- ing|love, Sing of his|ri- sing|pow’r;|Sing how he|in- * ter-|
 (c2 A2) d4 | d4 z4 | z2 B2 d2 B2 | c6 B2 | c4 c4 | B4 z2 e2 | d2 c2 B2 A2 | B2 d2 G2 G2 | G4 F4 | %19
w: sin _ de-|parts,|sing, till the|love of|sin de-|parts, And|grace in- spires our|songs, and grace in-|spires our|
w: ev- * ’ry|tongue,|wake ev- ’ry|heart and|ev- ’ry|tongue To|bless the Sa- viour’s|name, to bless the|Sa- viour’s|
w: cedes _ a-|bove,|sing how he|in- ter-|cedes a-|bove For|those whose sins he|bore, for those whose|sins he|
 G8 |] %20
w: songs.|
w: name.|
w: bore.|
V:4
 z2 | z4 z2 D,2 | G,2 G,2 G,2"^42" =F,2 |"^6" E,6"^6T" B,,2 | C,2 C,2 C,2"^4§" D,2 | %5
w: |Sing,|till we feel our|hearts, sing,|till we feel our|
w: |A-|wake and sing the|song, a-|wake and sing the|
w: |Sing|of his dy- ing|love, sing|of his dy- ing|
"^6" E,2"^65" F,2 G,2"^6" B,,2 |"^65" C,4"^8""^7" D,4 | G,,8 | G,4 G,2 G,2 | %9
w: hearts As- cen- ding|with our|tongues;|Sing, till the|
w: song Of Mo- ses|and the|Lamb:|Wake ev- ’ry|
w: love, Sing of his|ri- sing|pow’r;|Sing how he|
 (D,2"^42" C,2)"^6" B,,4 |"^5""^6" A,,4 G,,4 | D,2 D,2"^6" F,2 D,2 | (G,6"^42" =F,2 | %13
w: love _ of|sin de-|parts, sing, till the|love _|
w: heart _ and|ev- ’ry|tongue, wake ev- ’ry|heart _|
w: in- * ter-|cedes a-|bove, sing how he|in- *|
"^Notes:The order of staves in the source is Tenor - [Alto] - Air - [Bass], with the Alto part printed in the treble clef an octaveabove sounding pitch.Only the first verse of text is given in the source: subsequent verses have here been added editorially, using the textas given in The Collection of Hymns, to be universally sung in all the Countess of Huntingdon’s Chapels,Bath: M. Gye, [c1800].""^6" E,6)"^64" D,2 | %14
w: _ of|
w: _ and|
w: * ter-|
 (C,2 D,2)"^6" (E,2 F,2) | %15
w: sin _ de- *|
w: ev- * ’ry _|
w: cedes _ a- *|
"^Soon shall ye hear him say,Ye blessed children come,Soon will he call you hence away,To take his wand’rers home." G,4 z4 | %16
w: parts,|
w: tongue|
w: bove|
 z4 z2 D,2 | (G,2"^6" F,2 G,2) C,2 |"^64" D,4"^75" D,4 | G,,8 |] %20
w: And|grace _ _ in-|spires our|songs.|
w: To|bless _ _ the|Sa- viour’s|name.|
w: For|those _ _ whose|sins he|bore.|

